X:403
T: Jackson's Favorite
N: O'Farrell's Pocket Companion v.4 (Sky ed. p.172)
M: 6/8
L: 1/8
R: jig
Q: 320
K: D
DED DdB| AGF FdB| AGF AGF| EFE E2F|
DED DdB| AGF FdB| AGF AGF| DED D3 :|
fed dAB| efe efg| fed dAB| ded d2g|
fed dAB| efe efg| afd gec| ded d3 :|
